X:120
T: It Goes As Follies
T: \'Airitear mar Dhith C\'eille \'E
S: B.Breathnach:"Ceol Rince na hEireann" III/124
Z: B.Black
L: 1/8
M: 4/4
R: reel
K: G
ef|gedB AGED|BAGA (3Bcd ef|gedB AGEF|G3B A3 z|
gedB AGED|BAGA (3Bcd ef|gedB AGED|EAAF G3 z ||
BddB dega|bagb aged|BddB dega|bagb a2 z2|
BddB dega|bagb aged|BddB dega|bagf g2 z2 ||
